trunk/WorldWind/resources/milstd2525/icons/ems/efiacb---------.svg

<?xml version="1.0" encoding="UTF-8" standalone="no"?>
<!--
Copyright (C) 2012 United States Government as represented by the Administrator of the
National Aeronautics and Space Administration.
All Rights Reserved.
-->

<!--
MIL-STD-2525 tactical symbol icon image. During icon composition this image is multiplied by the desired frame color 
(e.g. black), then drawn on top of the frame and fill.
-->

<svg
   xmlns:dc="http://purl.org/dc/elements/1.1/"
   xmlns:cc="http://creativecommons.org/ns#"
   xmlns:rdf="http://www.w3.org/1999/02/22-rdf-syntax-ns#"
   xmlns:svg="http://www.w3.org/2000/svg"
   xmlns="http://www.w3.org/2000/svg"
   xmlns:sodipodi="http://sodipodi.sourceforge.net/DTD/sodipodi-0.dtd"
   xmlns:inkscape="http://www.inkscape.org/namespaces/inkscape"
   height="400px"
   viewBox="0 0 400 400"
   width="400px"
   id="svg2"
   version="1.1"
   inkscape:version="0.48.2 r9819"
   sodipodi:docname="efiacb---------.svg">
  <metadata
     id="metadata32">
    <rdf:RDF>
      <cc:Work
         rdf:about="">
        <dc:format>image/svg+xml</dc:format>
        <dc:type
           rdf:resource="http://purl.org/dc/dcmitype/StillImage" />
      </cc:Work>
    </rdf:RDF>
  </metadata>
  <defs
     id="defs30" />
  <sodipodi:namedview
     pagecolor="#ffffff"
     bordercolor="#666666"
     borderopacity="1"
     objecttolerance="10"
     gridtolerance="10"
     guidetolerance="10"
     inkscape:pageopacity="0"
     inkscape:pageshadow="2"
     inkscape:window-width="640"
     inkscape:window-height="480"
     id="namedview28"
     showgrid="false"
     inkscape:zoom="0.59"
     inkscape:cx="200"
     inkscape:cy="200"
     inkscape:window-x="0"
     inkscape:window-y="0"
     inkscape:window-maximized="0"
     inkscape:current-layer="svg2" />
  <g
     transform="matrix(100,0,0,100,73.3333,79.3333)"
     id="g4"
     style="fill:#000000">
    <path
       inkscape:connector-curvature="0"
       d="m 0.754035,0.616189 0.090409,0 0,0.670071 0.207406,0 0,-0.670071 0.08508,0 0,0.12763 C 1.14364,0.73891 1.16884,0.711126 1.16884,0.701276 l 0,-0.116996 -0.1489,0 0,0.67007 -0.14891,0 0,-0.67007 -0.143583,0 0,0.67007 -0.122315,0 0,0.76579 1.281638,0 0,-0.71793 C 1.87782,1.30821 1.86019,1.32635 1.86019,1.33944 l 0,0.64347 -1.228464,0 0,-0.69665 0.122311,0 0,-0.670071 z"
       style="fill:#ffffff;stroke:#ffffff;stroke-width:0.06;stroke-miterlimit:4;stroke-opacity:1;stroke-dasharray:0.12, 0.06;stroke-dashoffset:0"
       id="path6" />
    <path
       inkscape:connector-curvature="0"
       d="m 1.13693,1.28626 0.08509,0 C 1.21849,1.2711 1.2138,1.25435 1.19543,1.25435 l -0.02659,0 0,-0.06381 c 0,-0.02163 -0.02099,-0.05657 -0.03191,-0.06914 z"
       style="fill:#ffffff"
       id="path8" />
    <path
       inkscape:connector-curvature="0"
       d="m 1.48261,0.66937 c 0,-0.080701 0.07977,-0.173791 0.07977,-0.21272 0,-0.032118 -0.01779,-0.097402 -0.04255,-0.106362 0,0.166413 -0.20208,0.300535 -0.20208,0.366941 l 0,0.010638 c 0,0.016437 0.04514,0.122492 0.05325,0.154146 C 1.38131,0.922249 1.40486,1.01269 1.40816,1.05226 1.26421,1.04906 1.23798,0.822029 1.16885,0.77573 L 1.1623,0.844734 1.16353,0.951222 c 0,0.109408 0.07869,0.267428 0.13153,0.325818 0.02329,0.02573 0.09729,0.08554 0.12901,0.09967 0.02007,0.00893 0.14663,0.06909 0.15426,0.06909 0.03385,0 0.21507,-0.16969 0.24605,-0.20067 0.05879,-0.05879 0.0943,-0.22436 0.0943,-0.347085 l 0,-0.015957 L 1.90201,0.748434 C 1.87956,0.762221 1.85245,0.880517 1.83722,0.912296 1.80179,0.986201 1.79612,0.984638 1.71128,1.0044 1.70492,0.718859 1.8672,0.810496 1.64747,0.557689 1.64747,0.671665 1.62555,0.741992 1.55174,0.781047 1.51999,0.764248 1.48261,0.716846 1.48261,0.66937 z"
       style="fill:#ffffff;stroke:#ffffff;stroke-width:0.06;stroke-miterlimit:4;stroke-opacity:1;stroke-dasharray:0.12, 0.06;stroke-dashoffset:0"
       id="path10" />
    <polygon
       points="0.897622,1.5947 0.897622,1.45111 0.764673,1.45111 0.764673,1.5947 "
       style="fill:#ffffff"
       id="polygon12" />
    <polygon
       points="1.1848,1.5947 1.1848,1.45111 1.04653,1.45111 1.04653,1.5947 "
       style="fill:#ffffff"
       id="polygon14" />
    <polygon
       points="1.47197,1.5947 1.47197,1.45111 1.32838,1.45111 1.32838,1.5947 "
       style="fill:#ffffff"
       id="polygon16" />
    <path
       inkscape:connector-curvature="0"
       d="m 1.61024,1.5947 0.14359,0 0,-0.14359 -0.0585,0 c -0.02819,0 -0.05838,0.03542 -0.08509,0.04255 z"
       style="fill:#ffffff"
       id="path18" />
    <polygon
       points="0.897622,1.84465 0.897622,1.70638 0.764673,1.70638 0.764673,1.84465 "
       style="fill:#ffffff"
       id="polygon20" />
    <polygon
       points="1.1848,1.84465 1.1848,1.70638 1.04653,1.70638 1.04653,1.84465 "
       style="fill:#ffffff"
       id="polygon22" />
    <polygon
       points="1.47197,1.84465 1.47197,1.70638 1.32838,1.70638 1.32838,1.84465 "
       style="fill:#ffffff"
       id="polygon24" />
    <polygon
       points="1.75382,1.84465 1.75382,1.70638 1.61024,1.70638 1.61024,1.84465 "
       style="fill:#ffffff"
       id="polygon26" />
  </g>
</svg>

<?xml version="1.0"?>
<!--
Copyright (C) 2012 United States Government as represented by the Administrator of the
National Aeronautics and Space Administration.
All Rights Reserved.
-->

<!DOCTYPE svg PUBLIC "-//W3C//DTD SVG 1.1//EN" "http://www.w3.org/Graphics/SVG/1.1/DTD/svg11.dtd" >
<!--
MIL-STD-2525 tactical symbol icon image. During icon composition this image is multiplied by the desired frame color 
(e.g. black), then drawn on top of the frame and fill.
-->
<svg xmlns:xlink="http://www.w3.org/1999/xlink" height="400px" viewBox="0 0 400 400" width="400px"><g transform="scale(100) translate(0.733333 0.793333)"><path d="M0.754035 0.616189 L0.844444 0.616189 L0.844444 1.28626 L1.05185 1.28626 L1.05185     0.616189 L1.13693 0.616189 L1.13693 0.743819 C1.14364 0.73891 1.16884 0.711126     1.16884 0.701276 L1.16884 0.58428 L1.01994 0.58428 L1.01994 1.25435 L0.87103     1.25435 L0.87103 0.58428 L0.727447 0.58428 L0.727447 1.25435 L0.605132     1.25435 L0.605132 2.02014 L1.88677 2.02014 L1.88677 1.30221 C1.87782 1.30821     1.86019 1.32635 1.86019 1.33944 L1.86019 1.98291 L0.631726 1.98291 L0.631726     1.28626 L0.754037 1.28626 L0.754037 0.616189 z" style="fill:rgb(255,255,255)"/><path d="M1.13693 1.28626 L1.22202 1.28626 C1.21849 1.2711 1.2138 1.25435 1.19543 1.25435     L1.16884 1.25435 L1.16884 1.19054 C1.16884 1.16891 1.14785 1.13397 1.13693 1.1214     z" style="fill:rgb(255,255,255)"/><path d="M1.48261 0.66937 C1.48261 0.588669 1.56238 0.495579 1.56238 0.45665 C1.56238 0.424532     1.54459 0.359248 1.51983 0.350288 C1.51983 0.516701 1.31775 0.650823 1.31775     0.717229 L1.31775 0.727867 C1.31775 0.744304 1.36289 0.850359 1.371 0.882013     C1.38131 0.922249 1.40486 1.01269 1.40816 1.05226 C1.26421 1.04906 1.23798     0.822029 1.16885 0.77573 L1.1623 0.844734 L1.16353 0.951222 C1.16353 1.06063     1.24222 1.21865 1.29506 1.27704 C1.31835 1.30277 1.39235 1.36258 1.42407     1.37671 C1.44414 1.38564 1.5707 1.4458 1.57833 1.4458 C1.61218 1.4458 1.7934     1.27611 1.82438 1.24513 C1.88317 1.18634 1.91868 1.02077 1.91868 0.898045     L1.91868 0.882088 L1.90201 0.748434 C1.87956 0.762221 1.85245 0.880517 1.83722     0.912296 C1.80179 0.986201 1.79612 0.984638 1.71128 1.0044 C1.70492 0.718859     1.8672 0.810496 1.64747 0.557689 C1.64747 0.671665 1.62555 0.741992 1.55174     0.781047 C1.51999 0.764248 1.48261 0.716846 1.48261 0.66937 z" style="fill:rgb(255,255,255)"/><polygon points="0.764673,1.5947 0.897622,1.5947 0.897622,1.45111 0.764673,1.45111" style="fill:rgb(255,255,255)"/><polygon points="1.04653,1.5947 1.1848,1.5947 1.1848,1.45111 1.04653,1.45111" style="fill:rgb(255,255,255)"/><polygon points="1.32838,1.5947 1.47197,1.5947 1.47197,1.45111 1.32838,1.45111" style="fill:rgb(255,255,255)"/><path d="M1.61024 1.5947 L1.75383 1.5947 L1.75383 1.45111 L1.69533 1.45111 C1.66714 1.45111     1.63695 1.48653 1.61024 1.49366 z" style="fill:rgb(255,255,255)"/><polygon points="0.764673,1.84465 0.897622,1.84465 0.897622,1.70638 0.764673,1.70638" style="fill:rgb(255,255,255)"/><polygon points="1.04653,1.84465 1.1848,1.84465 1.1848,1.70638 1.04653,1.70638" style="fill:rgb(255,255,255)"/><polygon points="1.32838,1.84465 1.47197,1.84465 1.47197,1.70638 1.32838,1.70638" style="fill:rgb(255,255,255)"/><polygon points="1.61024,1.84465 1.75382,1.84465 1.75382,1.70638 1.61024,1.70638" style="fill:rgb(255,255,255)"/></g></svg>
